!!!!SEGMENT: Ser3001-Hau_hau_hau_le_boys.krn
!!!id: Ser3001
!!!AGN: Chanson
!!!SCT: Cazeaux (1974)
!!!voices: 4
!!!COM: Claudin de Sermisy
!!!OTL: Hau, hau, hau le boys
**kern	**kern	**kern	**kern
*part4	*part3	*part2	*part1
*staff4	*staff3	*staff2	*staff1
*I"Bassus	*I"Tenor	*I"Altus	*I"Superius
*I'B	*I'T	*I'A	*I'S
*clefF4	*clefGv2	*clefG2	*clefG2
*k[]	*k[]	*k[]	*k[]
*C:	*C:	*C:	*C:
*M2/1	*M2/1	*M2/1	*M2/1
*met(C|)	*met(C|)	*met(C|)	*met(C|)
=1	=1	=1	=1
1r	1r	1r	1r
1C	1c	1e	1cc
=2	=2	=2	=2
1E	1B	1e	1g
2F	2A	2c	2a
2D	2F	2d	2b
=3	=3	=3	=3
0C	1G	2e	1cc
.	.	1c	.
.	2r	.	1ee
.	[2c	2G	.
=4	=4	=4	=4
0r	2c]	2A	2ee
.	2G	2B	2dd
.	2.A	2.c	2.cc
.	4B	4d	8bL
.	.	.	8aJ
=5	=5	=5	=5
2r	4c	1e	1g
.	4d	.	.
1c	1e	.	.
.	.	1g	1r
2G	2d	.	.
=6	=6	=6	=6
2.A	2.c	2f	1cc
.	.	1e	.
4B	4d	.	.
2c	2e	.	2g
2F	[2f	[2c	[2a
=7	=7	=7	=7
1A	4f]	4c]	4a]
.	4e	4d	4b
.	2c	4e	1cc
.	.	4f	.
1G	1d	2g	.
.	.	2g	2b
=8	=8	=8	=8
0C	0c	1e	0cc
.	.	1g	.
=9	=9	=9	=9
0r	0r	2f	1cc
.	.	2e	.
.	.	2d	2b
.	.	2d	2a
=10	=10	=10	=10
0r	0r	4e	4g
.	.	4f	4a
.	.	4g	4b
.	.	4e	4g
.	.	2f	2a
.	.	2e	2cc
=11	=11	=11	=11
1G	1r	2.d	2cc
.	.	.	2b
.	.	8cL	.
.	.	8BJ	.
2F	1c	4A	1cc
.	.	4G	.
2E	.	[2g	.
=12	=12	=12	=12
2D	2B	2g]	0r
2D	2A	2f#i	.
4E	4G	1g	.
4F	4A	.	.
4G	4B	.	.
4E	4G	.	.
=13	=13	=13	=13
2F	2A	1r	0r
2E	2c	.	.
1D	2c	2r	.
.	2B	[2f	.
=14	=14	=14	=14
1C	1c	2f]	1cc
.	.	2e	.
1r	1r	2d	2b
.	.	2c	[2a
=15	=15	=15	=15
2r	2r	1e	4a]
.	.	.	4g
2C	2c	.	1g
2D	2B	2d	.
2D	2A	2d	2f#i
=16	=16	=16	=16
2E	2G	2B	2g
2C	2G	2e	2.cc
2F	2A	2f	.
.	.	.	4dd
2E	2B	[2g	[2ee
=17	=17	=17	=17
1A	1c	4g]	4ee]
.	.	4e	4dd
.	.	2f	1cc
1G	1d	1g	.
.	.	.	2b
=18	=18	=18	=18
1C	2.c	1e	1cc
.	4B	.	.
1r	1G	2r	1dd
.	.	2g	.
=19	=19	=19	=19
0r	0r	2d	2dd
.	.	2d	2ff
.	.	2g	2ee
.	.	2b	2dd
=20	=20	=20	=20
2r	2r	2a	2cc
2G	2d	1g	2b
2D	2d	.	1a
2D	2f	2f#i	.
=21	=21	=21	=21
2G	2e	1g	2b
2B	2d	.	2g
2A	2c	1r	2a
[2G	2B	.	2b
=22	=22	=22	=22
2G]	1A	1r	1cc
2F#i	.	.	.
2G	2r	2r	2r
[2C	[2G	[2e	[2cc
=23	=23	=23	=23
2C]	2G]	2e]	2cc]
2C	1c	2e	2g
2F	.	2f	2a
2G	2B	2d	2b
=24	=24	=24	=24
1C	1G	2e	1cc
.	.	2g	.
1r	1A	2f	1cc
.	.	2e	.
=25	=25	=25	=25
0r	1r	2d	2b
.	.	2d	2a
.	1c	2.e	4g
.	.	.	4f
.	.	.	4g
.	.	4f	4a
=26	=26	=26	=26
1r	2B	2g	2b
.	2A	2c	2cc
2r	2G	1d	2cc
[2G	2G	.	2b
=27	=27	=27	=27
2G]	2.A	0r	1cc
2F	.	.	.
.	4B	.	.
2E	2c	.	1r
2D	[2d	.	.
=28	=28	=28	=28
2F	4d]	0r	0r
.	4c	.	.
2E	1c	.	.
1D	.	.	.
.	2B	.	.
=29	=29	=29	=29
2C	2c	2r	2r
2C	2e	2g	2cc
2D	2d	2f	2b
2D	2d	2f	2a
=30	=30	=30	=30
2E	2B	1e	1g
2C	1c	.	.
2F	.	2f	2a
2C	2e	[2g	[2cc
=31	=31	=31	=31
1G	1d	2g]	2cc]
.	.	2g	2b
1C	2.c	1e	1cc
.	4B	.	.
=32	=32	=32	=32
0r	1G	2r	2r
.	.	2d	2dd
.	1r	2f	2dd
.	.	2e	2cc#i
=33	=33	=33	=33
2r	2r	1d	1dd
2D	2d	.	.
2F	2c	1r	1r
2G	2B	.	.
=34	=34	=34	=34
1D	0A	2r	1r
.	.	1f	.
1r	.	.	2r
.	.	2c	[2cc
=35	=35	=35	=35
0r	2r	1e	2cc]
.	1c	.	2g
.	.	2e	2a
.	2G	2d	2b
=36	=36	=36	=36
2r	2.A	1r	2.cc
1c	.	.	.
.	4B	.	4b
.	2c	1g	2g
2G	2d	.	2b
=37	=37	=37	=37
2.A	2.c	2f	2cc
.	.	1e	2.ee
4B	4d	.	.
2c	2e	.	.
.	.	.	4dd
2F	[2f	[2a	[2dd
=38	=38	=38	=38
1A	4f]	2a]	4dd]
.	4e	.	4cc
.	2c	2f	1cc
1G	1d	1g	.
.	.	.	2b
=39	=39	=39	=39
0C	1c	2e	1cc
.	.	1c	.
.	2r	.	1ee
.	[2c	2G	.
=40	=40	=40	=40
0r	2c]	2A	2ee
.	2G	2B	2dd
.	2.A	2.c	2.cc
.	4B	4d	8bL
.	.	.	8aJ
=41	=41	=41	=41
2r	4c	1e	1g
.	4d	.	.
1c	1e	.	.
.	.	1g	1r
2G	2d	.	.
=42	=42	=42	=42
2.A	2.c	2f	1cc
.	.	1e	.
4B	4d	.	.
2c	2e	.	2g
2F	[2f	[2c	[2a
=43	=43	=43	=43
1A	4f]	4c]	4a]
.	4e	4d	4b
.	2c	4e	1cc
.	.	4f	.
1G	1d	2g	.
.	.	2g	2b
=44	=44	=44	=44
00Cl	00cl	00el	00ccl
==	==	==	==
*-	*-	*-	*-
!!!system-decoration: [*]
!!!RDF**kern: i = editorial accidental
!!!RDF**kern: l = terminal long
!!!ENC: Benjamin Ory
!!!END: 2021/5/21
!!!EED: Benjamin Ory
!!!EEV: 2021/05/21
!!!YEC: Copyright 2021 Benjamin Ory, All Rights Reserved
!!!ONB: Translated from MusicXML on 2021/05/21
